img/icon-android.svg

<svg width="43" height="47" viewBox="0 0 43 47" fill="none" xmlns="http://www.w3.org/2000/svg">
<path d="M34.8864 14.0617H8.11359C8.11359 14.1718 8.11359 14.282 8.11359 14.3922V33.1955C8.10298 34.1078 8.44648 34.99 9.0745 35.6633C9.70251 36.3367 10.5681 36.7508 11.496 36.8219V44.2751C11.5402 45.0122 11.8701 45.7048 12.4181 46.2114C12.9661 46.7179 13.6909 47 14.444 47C15.1972 47 15.9219 46.7179 16.4699 46.2114C17.0179 45.7048 17.3478 45.0122 17.3921 44.2751V36.842H25.6283V44.2751C25.6726 45.0122 26.0025 45.7048 26.5505 46.2114C27.0985 46.7179 27.8232 47 28.5764 47C29.3296 47 30.0543 46.7179 30.6023 46.2114C31.1503 45.7048 31.4802 45.0122 31.5245 44.2751V36.8219C32.4532 36.7509 33.32 36.3371 33.9496 35.664C34.5793 34.991 34.925 34.1088 34.917 33.1955V14.4023C34.9068 14.2921 34.8966 14.1819 34.8864 14.0617Z" fill="#A4C639"/>
<path d="M2.95318 15.7446C3.73371 15.7446 4.48226 16.0486 5.03417 16.5897C5.58609 17.1307 5.89615 17.8646 5.89615 18.6297V31.0317C5.89749 31.4114 5.82236 31.7876 5.67507 32.1388C5.52777 32.49 5.31121 32.8093 5.03779 33.0782C4.76438 33.3472 4.4395 33.5606 4.08177 33.7062C3.72405 33.8518 3.34052 33.9268 2.95318 33.9268C2.16995 33.9268 1.4188 33.6218 0.864967 33.0788C0.311138 32.5359 0 31.7995 0 31.0317V18.6297C-2.33488e-06 18.25 0.076457 17.874 0.224993 17.5233C0.37353 17.1726 0.591221 16.8541 0.865584 16.5861C1.13995 16.3181 1.46558 16.1058 1.82382 15.9614C2.18206 15.817 2.56585 15.7433 2.95318 15.7446Z" fill="#A4C639"/>
<path d="M40.057 15.7446C40.8375 15.7446 41.5861 16.0486 42.138 16.5897C42.6899 17.1307 43 17.8646 43 18.6297V31.0317C43.0013 31.4114 42.9262 31.7876 42.7789 32.1388C42.6316 32.49 42.415 32.8093 42.1416 33.0782C41.8682 33.3472 41.5433 33.5606 41.1856 33.7062C40.8279 33.8518 40.4444 33.9268 40.057 33.9268C39.2738 33.9268 38.5226 33.6218 37.9688 33.0788C37.415 32.5359 37.1038 31.7995 37.1038 31.0317V18.6297C37.1038 18.25 37.1803 17.874 37.3288 17.5233C37.4774 17.1726 37.6951 16.8541 37.9694 16.5861C38.2438 16.3181 38.5694 16.1058 38.9277 15.9614C39.2859 15.817 39.6697 15.7433 40.057 15.7446Z" fill="#A4C639"/>
<path d="M8.1749 12.0581H34.7433C34.6757 9.30184 33.5048 6.68226 31.4836 4.76521L34.0485 0.497656C34.0753 0.460664 34.0936 0.418348 34.1019 0.373689C34.1103 0.32903 34.1086 0.283115 34.0969 0.239179C34.0852 0.195243 34.0638 0.154355 34.0343 0.119396C34.0047 0.0844363 33.9677 0.0562562 33.9258 0.0368408C33.8548 -0.000483829 33.7719 -0.00986479 33.6941 0.010608C33.6163 0.0310808 33.5493 0.079868 33.5069 0.147036L31.0851 4.30439C28.3256 2.19779 24.9549 1.00508 21.4591 0.898365C17.9845 1.03299 14.6384 2.22325 11.8843 4.30439L9.50332 0.187107C9.46579 0.112239 9.39997 0.0546621 9.31983 0.0266048C9.2397 -0.00145257 9.15156 0.00221937 9.07414 0.0368408C9.00488 0.0802746 8.95485 0.147693 8.93402 0.225666C8.91319 0.303639 8.92308 0.386444 8.96174 0.457585L11.4551 4.69508C9.41279 6.62849 8.2336 9.27542 8.1749 12.0581ZM25.8736 6.84889C25.8736 6.45036 26.0351 6.06816 26.3225 5.78635C26.61 5.50455 26.9998 5.34623 27.4064 5.34623C27.8129 5.34623 28.2028 5.50455 28.4902 5.78635C28.7777 6.06816 28.9391 6.45036 28.9391 6.84889C28.9391 7.24742 28.7777 7.62963 28.4902 7.91143C28.2028 8.19324 27.8129 8.35155 27.4064 8.35155C26.9998 8.35155 26.61 8.19324 26.3225 7.91143C26.0351 7.62963 25.8736 7.24742 25.8736 6.84889ZM14.49 6.84889C14.49 6.45036 14.6515 6.06816 14.939 5.78635C15.2264 5.50455 15.6163 5.34623 16.0228 5.34623C16.4293 5.34623 16.8192 5.50455 17.1067 5.78635C17.3941 6.06816 17.5556 6.45036 17.5556 6.84889C17.5556 7.24742 17.3941 7.62963 17.1067 7.91143C16.8192 8.19324 16.4293 8.35155 16.0228 8.35155C15.6163 8.35155 15.2264 8.19324 14.939 7.91143C14.6515 7.62963 14.49 7.24742 14.49 6.84889Z" fill="#A4C639"/>
</svg>

<svg width="43" height="47" fill="none" xmlns="http://www.w3.org/2000/svg"><path d="M34.89 14.06H8.1V33.2c0 .92.34 1.8.96 2.47a3.7 3.7 0 0 0 2.43 1.16v7.46c.04.73.37 1.42.92 1.93a2.99 2.99 0 0 0 4.05 0c.55-.5.88-1.2.92-1.93v-7.44h8.24v7.44c.04.73.37 1.42.92 1.93a2.99 2.99 0 0 0 4.05 0c.55-.5.88-1.2.92-1.93v-7.46a3.7 3.7 0 0 0 2.43-1.16c.63-.67.97-1.55.97-2.46V14.4l-.03-.34Z" fill="#A4C639"/><path d="M2.95 15.74a2.93 2.93 0 0 1 2.95 2.89v12.4a2.84 2.84 0 0 1-.86 2.05 2.95 2.95 0 0 1-2.09.85c-.78 0-1.53-.3-2.09-.85A2.87 2.87 0 0 1 0 31.03v-12.4a2.84 2.84 0 0 1 .87-2.04 2.95 2.95 0 0 1 2.08-.85Z" fill="#A4C639"/><path d="M40.06 15.74A2.93 2.93 0 0 1 43 18.63v12.4a2.84 2.84 0 0 1-.86 2.05 2.95 2.95 0 0 1-2.08.85c-.79 0-1.54-.3-2.1-.85a2.87 2.87 0 0 1-.86-2.05v-12.4a2.84 2.84 0 0 1 .87-2.04 2.95 2.95 0 0 1 2.09-.85Z" fill="#A4C639"/><path d="M8.17 12.06h26.57a10.4 10.4 0 0 0-3.26-7.3L34.05.5a.3.3 0 0 0-.12-.46.32.32 0 0 0-.42.1L31.09 4.3A16.7 16.7 0 0 0 21.46.9a16.98 16.98 0 0 0-9.58 3.4L9.5.2a.32.32 0 0 0-.18-.16.33.33 0 0 0-.25 0 .31.31 0 0 0-.11.42l2.5 4.25a10.44 10.44 0 0 0-3.29 7.36Zm17.7-5.21c0-.4.17-.78.45-1.06a1.55 1.55 0 0 1 2.17 0 1.49 1.49 0 0 1 0 2.12 1.55 1.55 0 0 1-2.17 0 1.49 1.49 0 0 1-.45-1.06Zm-11.38 0c0-.4.16-.78.45-1.06a1.55 1.55 0 0 1 2.17 0 1.49 1.49 0 0 1 0 2.12 1.55 1.55 0 0 1-2.17 0 1.49 1.49 0 0 1-.45-1.06Z" fill="#A4C639"/></svg>
